copytrade/img/icons/product.svg

<svg width="44" height="45" viewBox="0 0 44 45" fill="none" xmlns="http://www.w3.org/2000/svg">
<rect y="0.5" width="44" height="44" rx="22" fill="#E5E5F1"/>
<path d="M30 27.4524C30 25.9286 30 25.9141 30 24.0238C30 22.1335 30 21.9286 30 20.5952V19.0714C30 18.231 29.3476 17.5476 28.5455 17.5476H27.8182V16.0238C27.8182 15.1834 27.1658 14.5 26.3636 14.5H16.1818C15.1033 14.5 14.2116 15.3259 14.0371 16.404C14.0211 16.4665 14 16.5274 14 16.5952V28.2143C14 29.4745 14.9789 30.5 16.1818 30.5H28.5455C29.3476 30.5 30 29.8166 30 28.9762V27.4524ZM15.4545 16.7857C15.4545 16.3659 15.7804 16.0238 16.1818 16.0238H26.3636V17.5476H16.1818C15.7804 17.5476 15.4545 17.2055 15.4545 16.7857Z" fill="#646E82"/>
</svg>

<svg width="44" height="45" fill="none" xmlns="http://www.w3.org/2000/svg"><rect y=".5" width="44" height="44" rx="22" fill="#E5E5F1"/><path d="M30 27.452V19.07c0-.84-.652-1.523-1.454-1.523h-.728v-1.524c0-.84-.652-1.524-1.454-1.524H16.182c-1.079 0-1.97.826-2.145 1.904-.016.063-.037.123-.037.191v11.62c0 1.26.979 2.285 2.182 2.285h12.364c.802 0 1.454-.683 1.454-1.524v-1.524zM15.454 16.786c0-.42.326-.762.728-.762h10.182v1.524H16.182c-.402 0-.727-.342-.727-.762z" fill="#646E82"/></svg>
